images/11949122.svg

<?xml version="1.0" encoding="UTF-8"?>
<svg xmlns="http://www.w3.org/2000/svg" xmlns:xlink="http://www.w3.org/1999/xlink" width="300pt" height="300pt" viewBox="0 0 300 300" version="1.1">
<defs>
<g>
<symbol overflow="visible" id="glyph0-0">
<path style="stroke:none;" d="M 0.453125 1.59375 L 0.453125 -6.34375 L 4.953125 -6.34375 L 4.953125 1.59375 Z M 0.953125 1.09375 L 4.453125 1.09375 L 4.453125 -5.84375 L 0.953125 -5.84375 Z M 0.953125 1.09375 "/>
</symbol>
<symbol overflow="visible" id="glyph0-1">
<path style="stroke:none;" d="M 3.546875 -5.953125 C 2.898438 -5.953125 2.382812 -5.710938 2 -5.234375 C 1.625 -4.753906 1.4375 -4.101562 1.4375 -3.28125 C 1.4375 -2.445312 1.625 -1.789062 2 -1.3125 C 2.382812 -0.832031 2.898438 -0.59375 3.546875 -0.59375 C 4.191406 -0.59375 4.703125 -0.832031 5.078125 -1.3125 C 5.453125 -1.789062 5.640625 -2.445312 5.640625 -3.28125 C 5.640625 -4.101562 5.453125 -4.753906 5.078125 -5.234375 C 4.703125 -5.710938 4.191406 -5.953125 3.546875 -5.953125 Z M 3.546875 -6.6875 C 4.460938 -6.6875 5.195312 -6.375 5.75 -5.75 C 6.300781 -5.132812 6.578125 -4.3125 6.578125 -3.28125 C 6.578125 -2.238281 6.300781 -1.410156 5.75 -0.796875 C 5.195312 -0.179688 4.460938 0.125 3.546875 0.125 C 2.617188 0.125 1.878906 -0.179688 1.328125 -0.796875 C 0.773438 -1.410156 0.5 -2.238281 0.5 -3.28125 C 0.5 -4.3125 0.773438 -5.132812 1.328125 -5.75 C 1.878906 -6.375 2.617188 -6.6875 3.546875 -6.6875 Z M 3.546875 -6.6875 "/>
</symbol>
<symbol overflow="visible" id="glyph0-2">
<path style="stroke:none;" d="M 0.890625 -6.5625 L 2.078125 -6.5625 L 4.984375 -1.078125 L 4.984375 -6.5625 L 5.84375 -6.5625 L 5.84375 0 L 4.65625 0 L 1.75 -5.484375 L 1.75 0 L 0.890625 0 Z M 0.890625 -6.5625 "/>
</symbol>
<symbol overflow="visible" id="glyph0-3">
<path style="stroke:none;" d="M 0.890625 -6.5625 L 1.765625 -6.5625 L 1.765625 -3.875 L 5 -3.875 L 5 -6.5625 L 5.890625 -6.5625 L 5.890625 0 L 5 0 L 5 -3.125 L 1.765625 -3.125 L 1.765625 0 L 0.890625 0 Z M 0.890625 -6.5625 "/>
</symbol>
</g>
</defs>
<g id="surface30533">
<rect x="0" y="0" width="300" height="300" style="fill:rgb(100%,100%,100%);fill-opacity:1;stroke:none;"/>
<path style="fill:none;stroke-width:1.2;stroke-linecap:butt;stroke-linejoin:miter;stroke:rgb(0%,0%,0%);stroke-opacity:1;stroke-miterlimit:10;" d="M 57.753906 79.847656 L 64.707031 90.355469 "/>
<path style="fill:none;stroke-width:1.2;stroke-linecap:butt;stroke-linejoin:miter;stroke:rgb(100%,0%,0%);stroke-opacity:1;stroke-miterlimit:10;" d="M 64.707031 90.355469 L 71.660156 100.867188 "/>
<path style="fill:none;stroke-width:1.2;stroke-linecap:butt;stroke-linejoin:miter;stroke:rgb(100%,0%,0%);stroke-opacity:1;stroke-miterlimit:10;" d="M 71.660156 100.867188 L 66.035156 112.144531 "/>
<path style="fill:none;stroke-width:1.2;stroke-linecap:butt;stroke-linejoin:miter;stroke:rgb(0%,0%,0%);stroke-opacity:1;stroke-miterlimit:10;" d="M 66.035156 112.144531 L 60.40625 123.421875 "/>
<path style=" stroke:none;fill-rule:nonzero;fill:rgb(100%,100%,100%);fill-opacity:1;" d="M 67.660156 95.367188 L 75.660156 95.367188 L 75.660156 106.367188 L 67.660156 106.367188 Z M 67.660156 95.367188 "/>
<g style="fill:rgb(100%,0%,0%);fill-opacity:1;">
  <use xlink:href="#glyph0-1" x="67.660156" y="104.030273"/>
</g>
<path style="fill:none;stroke-width:1.2;stroke-linecap:butt;stroke-linejoin:miter;stroke:rgb(0%,0%,0%);stroke-opacity:1;stroke-miterlimit:10;" d="M 60.226562 120.460938 L 47.648438 121.226562 "/>
<path style="fill:none;stroke-width:1.2;stroke-linecap:butt;stroke-linejoin:miter;stroke:rgb(100%,0%,0%);stroke-opacity:1;stroke-miterlimit:10;" d="M 47.648438 121.226562 L 35.070312 121.992188 "/>
<path style="fill:none;stroke-width:1.2;stroke-linecap:butt;stroke-linejoin:miter;stroke:rgb(0%,0%,0%);stroke-opacity:1;stroke-miterlimit:10;" d="M 60.589844 126.378906 L 48.007812 127.148438 "/>
<path style="fill:none;stroke-width:1.2;stroke-linecap:butt;stroke-linejoin:miter;stroke:rgb(100%,0%,0%);stroke-opacity:1;stroke-miterlimit:10;" d="M 48.007812 127.148438 L 35.429688 127.914062 "/>
<path style=" stroke:none;fill-rule:nonzero;fill:rgb(0%,0%,0%);fill-opacity:1;" d="M 74.3125 144.441406 L 64.117188 120.96875 L 56.699219 125.875 Z M 74.3125 144.441406 "/>
<path style=" stroke:none;fill-rule:nonzero;fill:rgb(100%,100%,100%);fill-opacity:1;" d="M 27.25 119.453125 L 35.25 119.453125 L 35.25 130.453125 L 27.25 130.453125 Z M 27.25 119.453125 "/>
<g style="fill:rgb(100%,0%,0%);fill-opacity:1;">
  <use xlink:href="#glyph0-1" x="27.25" y="128.116211"/>
</g>
<path style="fill:none;stroke-width:1.2;stroke-linecap:butt;stroke-linejoin:miter;stroke:rgb(0%,0%,0%);stroke-opacity:1;stroke-miterlimit:10;" d="M 74.3125 144.441406 L 65.480469 168.046875 "/>
<path style="fill:none;stroke-width:1.2;stroke-linecap:butt;stroke-linejoin:miter;stroke:rgb(0%,0%,100%);stroke-opacity:1;stroke-miterlimit:10;" d="M 99.492188 145.546875 L 86.902344 144.996094 "/>
<path style="fill:none;stroke-width:1.2;stroke-linecap:butt;stroke-linejoin:miter;stroke:rgb(0%,0%,0%);stroke-opacity:1;stroke-miterlimit:10;" d="M 86.902344 144.996094 L 74.3125 144.441406 "/>
<path style=" stroke:none;fill-rule:nonzero;fill:rgb(0%,0%,0%);fill-opacity:1;" d="M 85.203125 183.742188 L 68.25 164.566406 L 62.710938 171.527344 Z M 85.203125 183.742188 "/>
<path style="fill:none;stroke-width:1.2;stroke-linecap:butt;stroke-linejoin:miter;stroke:rgb(0%,0%,0%);stroke-opacity:1;stroke-miterlimit:10;" d="M 85.203125 183.742188 L 86.734375 208.902344 "/>
<path style="fill:none;stroke-width:1.2;stroke-linecap:butt;stroke-linejoin:miter;stroke:rgb(0%,0%,0%);stroke-opacity:1;stroke-miterlimit:10;" d="M 106.222656 169.839844 L 85.203125 183.742188 "/>
<path style="fill:none;stroke-width:1.2;stroke-linecap:butt;stroke-linejoin:miter;stroke:rgb(0%,0%,0%);stroke-opacity:1;stroke-miterlimit:10;" d="M 86.734375 208.902344 L 109.289062 220.152344 "/>
<path style="fill:none;stroke-width:1.2;stroke-linecap:butt;stroke-linejoin:miter;stroke:rgb(0%,0%,0%);stroke-opacity:1;stroke-miterlimit:10;" d="M 109.289062 220.152344 L 130.308594 206.25 "/>
<path style="fill:none;stroke-width:1.2;stroke-linecap:butt;stroke-linejoin:miter;stroke:rgb(0%,0%,0%);stroke-opacity:1;stroke-miterlimit:10;" d="M 130.308594 206.25 L 128.777344 181.089844 "/>
<path style="fill:none;stroke-width:1;stroke-linecap:butt;stroke-linejoin:miter;stroke:rgb(0%,0%,0%);stroke-opacity:1;stroke-miterlimit:10;" d="M 130.308594 206.25 L 130.308594 206.25 M 132.71875 208.035156 L 133.183594 207.101562 M 135.128906 209.820312 L 136.0625 207.953125 M 137.542969 211.605469 L 138.9375 208.804688 M 139.953125 213.390625 L 141.8125 209.65625 M 142.363281 215.175781 L 144.691406 210.511719 M 144.773438 216.960938 L 147.566406 211.363281 M 147.183594 218.746094 L 150.441406 212.214844 M 149.59375 220.53125 L 153.320312 213.066406 M 150.875 221.480469 L 154.847656 213.519531 "/>
<path style=" stroke:none;fill-rule:nonzero;fill:rgb(0%,0%,0%);fill-opacity:1;" d="M 106.222656 169.839844 L 126.789062 185.070312 L 130.761719 177.109375 Z M 106.222656 169.839844 "/>
<path style="fill:none;stroke-width:1.2;stroke-linecap:butt;stroke-linejoin:miter;stroke:rgb(0%,0%,0%);stroke-opacity:1;stroke-miterlimit:10;" d="M 106.222656 169.839844 L 102.859375 157.691406 "/>
<path style="fill:none;stroke-width:1.2;stroke-linecap:butt;stroke-linejoin:miter;stroke:rgb(0%,0%,100%);stroke-opacity:1;stroke-miterlimit:10;" d="M 102.859375 157.691406 L 99.492188 145.546875 "/>
<path style="fill:none;stroke-width:1.2;stroke-linecap:butt;stroke-linejoin:miter;stroke:rgb(0%,0%,100%);stroke-opacity:1;stroke-miterlimit:10;" d="M 99.492188 145.546875 L 107.339844 135.6875 "/>
<path style="fill:none;stroke-width:1.2;stroke-linecap:butt;stroke-linejoin:miter;stroke:rgb(0%,0%,0%);stroke-opacity:1;stroke-miterlimit:10;" d="M 107.339844 135.6875 L 115.191406 125.828125 "/>
<path style=" stroke:none;fill-rule:nonzero;fill:rgb(100%,100%,100%);fill-opacity:1;" d="M 96.492188 140.046875 L 103.492188 140.046875 L 103.492188 151.046875 L 96.492188 151.046875 Z M 96.492188 140.046875 "/>
<g style="fill:rgb(0%,0%,100%);fill-opacity:1;">
  <use xlink:href="#glyph0-2" x="96.492188" y="148.709961"/>
</g>
<path style="fill:none;stroke-width:1.2;stroke-linecap:butt;stroke-linejoin:miter;stroke:rgb(0%,0%,0%);stroke-opacity:1;stroke-miterlimit:10;" d="M 115.191406 125.828125 L 140.117188 129.558594 "/>
<path style="fill:none;stroke-width:1.2;stroke-linecap:butt;stroke-linejoin:miter;stroke:rgb(0%,0%,0%);stroke-opacity:1;stroke-miterlimit:10;" d="M 140.117188 129.558594 L 149.347656 153.011719 "/>
<path style="fill:none;stroke-width:1.2;stroke-linecap:butt;stroke-linejoin:miter;stroke:rgb(0%,0%,0%);stroke-opacity:1;stroke-miterlimit:10;" d="M 146.558594 129.734375 L 153.941406 148.496094 "/>
<path style="fill:none;stroke-width:1.2;stroke-linecap:butt;stroke-linejoin:miter;stroke:rgb(0%,0%,0%);stroke-opacity:1;stroke-miterlimit:10;" d="M 155.8125 109.839844 L 140.117188 129.558594 "/>
<path style="fill:none;stroke-width:1.2;stroke-linecap:butt;stroke-linejoin:miter;stroke:rgb(0%,0%,0%);stroke-opacity:1;stroke-miterlimit:10;" d="M 149.347656 153.011719 L 174.273438 156.746094 "/>
<path style="fill:none;stroke-width:1.2;stroke-linecap:butt;stroke-linejoin:miter;stroke:rgb(0%,0%,0%);stroke-opacity:1;stroke-miterlimit:10;" d="M 174.273438 156.746094 L 189.96875 137.023438 "/>
<path style="fill:none;stroke-width:1.2;stroke-linecap:butt;stroke-linejoin:miter;stroke:rgb(0%,0%,0%);stroke-opacity:1;stroke-miterlimit:10;" d="M 171.203125 151.078125 L 183.761719 135.304688 "/>
<path style="fill:none;stroke-width:1.2;stroke-linecap:butt;stroke-linejoin:miter;stroke:rgb(0%,0%,0%);stroke-opacity:1;stroke-miterlimit:10;" d="M 189.96875 137.023438 L 180.738281 113.570312 "/>
<path style="fill:none;stroke-width:1.2;stroke-linecap:butt;stroke-linejoin:miter;stroke:rgb(0%,0%,0%);stroke-opacity:1;stroke-miterlimit:10;" d="M 189.96875 137.023438 L 202.433594 138.890625 "/>
<path style="fill:none;stroke-width:1.2;stroke-linecap:butt;stroke-linejoin:miter;stroke:rgb(0%,0%,100%);stroke-opacity:1;stroke-miterlimit:10;" d="M 202.433594 138.890625 L 214.898438 140.757812 "/>
<path style="fill:none;stroke-width:1.2;stroke-linecap:butt;stroke-linejoin:miter;stroke:rgb(0%,0%,0%);stroke-opacity:1;stroke-miterlimit:10;" d="M 180.738281 113.570312 L 155.8125 109.839844 "/>
<path style="fill:none;stroke-width:1.2;stroke-linecap:butt;stroke-linejoin:miter;stroke:rgb(0%,0%,0%);stroke-opacity:1;stroke-miterlimit:10;" d="M 177.367188 119.0625 L 157.425781 116.078125 "/>
<path style="fill:none;stroke-width:1.2;stroke-linecap:butt;stroke-linejoin:miter;stroke:rgb(0%,0%,100%);stroke-opacity:1;stroke-miterlimit:10;" d="M 214.898438 140.757812 L 219.511719 152.484375 "/>
<path style="fill:none;stroke-width:1.2;stroke-linecap:butt;stroke-linejoin:miter;stroke:rgb(0%,0%,0%);stroke-opacity:1;stroke-miterlimit:10;" d="M 219.511719 152.484375 L 224.128906 164.210938 "/>
<path style="fill:none;stroke-width:1.2;stroke-linecap:butt;stroke-linejoin:miter;stroke:rgb(0%,0%,0%);stroke-opacity:1;stroke-miterlimit:10;" d="M 230.59375 121.035156 L 222.746094 130.894531 "/>
<path style="fill:none;stroke-width:1.2;stroke-linecap:butt;stroke-linejoin:miter;stroke:rgb(0%,0%,100%);stroke-opacity:1;stroke-miterlimit:10;" d="M 222.746094 130.894531 L 214.898438 140.757812 "/>
<path style=" stroke:none;fill-rule:nonzero;fill:rgb(100%,100%,100%);fill-opacity:1;" d="M 211.898438 135.257812 L 218.898438 135.257812 L 218.898438 146.257812 L 211.898438 146.257812 Z M 211.898438 135.257812 "/>
<g style="fill:rgb(0%,0%,100%);fill-opacity:1;">
  <use xlink:href="#glyph0-2" x="211.898438" y="143.920898"/>
</g>
<path style="fill:none;stroke-width:1.2;stroke-linecap:butt;stroke-linejoin:miter;stroke:rgb(0%,0%,0%);stroke-opacity:1;stroke-miterlimit:10;" d="M 224.128906 164.210938 L 249.054688 167.941406 "/>
<path style="fill:none;stroke-width:1.2;stroke-linecap:butt;stroke-linejoin:miter;stroke:rgb(0%,0%,0%);stroke-opacity:1;stroke-miterlimit:10;" d="M 249.054688 167.941406 L 256.902344 158.082031 "/>
<path style="fill:none;stroke-width:1.2;stroke-linecap:butt;stroke-linejoin:miter;stroke:rgb(100%,0%,0%);stroke-opacity:1;stroke-miterlimit:10;" d="M 256.902344 158.082031 L 264.75 148.21875 "/>
<path style="fill:none;stroke-width:1.2;stroke-linecap:butt;stroke-linejoin:miter;stroke:rgb(100%,0%,0%);stroke-opacity:1;stroke-miterlimit:10;" d="M 264.75 148.21875 L 260.132812 136.492188 "/>
<path style="fill:none;stroke-width:1.2;stroke-linecap:butt;stroke-linejoin:miter;stroke:rgb(0%,0%,0%);stroke-opacity:1;stroke-miterlimit:10;" d="M 260.132812 136.492188 L 255.519531 124.765625 "/>
<path style=" stroke:none;fill-rule:nonzero;fill:rgb(100%,100%,100%);fill-opacity:1;" d="M 260.75 142.71875 L 268.75 142.71875 L 268.75 153.71875 L 260.75 153.71875 Z M 260.75 142.71875 "/>
<g style="fill:rgb(100%,0%,0%);fill-opacity:1;">
  <use xlink:href="#glyph0-1" x="260.75" y="151.381836"/>
</g>
<path style="fill:none;stroke-width:1.2;stroke-linecap:butt;stroke-linejoin:miter;stroke:rgb(0%,0%,0%);stroke-opacity:1;stroke-miterlimit:10;" d="M 255.519531 124.765625 L 230.59375 121.035156 "/>
<path style=" stroke:none;fill-rule:nonzero;fill:rgb(100%,100%,100%);fill-opacity:1;" d="M 145.863281 212 L 160.863281 212 L 160.863281 223 L 145.863281 223 Z M 145.863281 212 "/>
<g style="fill:rgb(100%,0%,0%);fill-opacity:1;">
  <use xlink:href="#glyph0-1" x="145.863281" y="220.663086"/>
  <use xlink:href="#glyph0-3" x="153.205078" y="220.663086"/>
</g>
</g>
</svg>

<svg xmlns="http://www.w3.org/2000/svg" xmlns:xlink="http://www.w3.org/1999/xlink" width="300pt" height="300pt" viewBox="0 0 300 300"><defs><symbol overflow="visible"><path d="M.453 1.594v-7.938h4.5v7.938zm.5-.5h3.5v-6.938h-3.5zm0 0"/></symbol><symbol overflow="visible" id="a"><path d="M3.547-5.953c-.65 0-1.164.242-1.547.72-.375.48-.563 1.13-.563 1.952 0 .835.188 1.49.563 1.967.383.48.898.72 1.547.72.644 0 1.156-.24 1.53-.72.376-.476.564-1.132.564-1.968 0-.822-.187-1.474-.562-1.954-.375-.477-.887-.72-1.53-.72zm0-.734c.914 0 1.648.312 2.203.937.55.617.828 1.438.828 2.47 0 1.042-.277 1.87-.828 2.483-.555.617-1.29.922-2.203.922-.93 0-1.668-.305-2.22-.922C.774-1.41.5-2.237.5-3.28c0-1.033.273-1.853.828-2.47.55-.625 1.29-.938 2.22-.938zm0 0"/></symbol><symbol overflow="visible" id="b"><path d="M.89-6.563H2.08l2.906 5.485v-5.484h.86V0H4.656L1.75-5.484V0H.89zm0 0"/></symbol><symbol overflow="visible" id="c"><path d="M.89-6.563h.876v2.688H5v-2.688h.89V0H5v-3.125H1.766V0H.89zm0 0"/></symbol></defs><g><path fill="#fff" d="M0 0h300v300H0z"/><path d="M57.754 79.848l6.953 10.507" stroke-width="1.2" stroke="#000" stroke-miterlimit="10" fill="none"/><path d="M64.707 90.355l6.953 10.512M71.66 100.867l-5.625 11.278" stroke-width="1.2" stroke="#f00" stroke-miterlimit="10" fill="none"/><path d="M66.035 112.145l-5.63 11.277" stroke-width="1.2" stroke="#000" stroke-miterlimit="10" fill="none"/><path d="M67.66 95.367h8v11h-8zm0 0" fill="#fff"/><use xlink:href="#a" x="67.66" y="104.03" fill="#f00"/><path d="M60.227 120.46l-12.58.767" stroke-width="1.2" stroke="#000" stroke-miterlimit="10" fill="none"/><path d="M47.648 121.227l-12.578.765" stroke-width="1.2" stroke="#f00" stroke-miterlimit="10" fill="none"/><path d="M60.59 126.38l-12.582.768" stroke-width="1.2" stroke="#000" stroke-miterlimit="10" fill="none"/><path d="M48.008 127.148l-12.578.766" stroke-width="1.2" stroke="#f00" stroke-miterlimit="10" fill="none"/><path d="M74.313 144.44l-10.196-23.47-7.418 4.905zm0 0"/><path d="M27.25 119.453h8v11h-8zm0 0" fill="#fff"/><use xlink:href="#a" x="27.25" y="128.116" fill="#f00"/><path d="M74.313 144.44l-8.833 23.607" stroke-width="1.2" stroke="#000" stroke-miterlimit="10" fill="none"/><path d="M99.492 145.547l-12.59-.55" stroke-width="1.2" stroke="#00f" stroke-miterlimit="10" fill="none"/><path d="M86.902 144.996l-12.59-.555" stroke-width="1.2" stroke="#000" stroke-miterlimit="10" fill="none"/><path d="M85.203 183.742L68.25 164.566l-5.54 6.96zm0 0"/><path d="M85.203 183.742l1.53 25.16M106.223 169.84l-21.02 13.902M86.734 208.902l22.555 11.25M109.29 220.152l21.02-13.902M130.31 206.25l-1.533-25.16" stroke-width="1.2" stroke="#000" stroke-miterlimit="10" fill="none"/><path d="M130.31 206.25m2.41 1.785l.464-.933m1.945 2.718l.933-1.867m1.48 3.652l1.394-2.8m1.016 4.586l1.86-3.734m.55 5.52l2.328-4.664m.083 6.45l2.793-5.6m-.382 7.384l3.257-6.53m-.846 8.315l3.726-7.464m-2.445 8.414l3.973-7.96" stroke="#000" stroke-miterlimit="10" fill="none"/><path d="M106.223 169.84l20.566 15.23 3.972-7.96zm0 0"/><path d="M106.223 169.84l-3.364-12.15" stroke-width="1.2" stroke="#000" stroke-miterlimit="10" fill="none"/><path d="M102.86 157.69l-3.368-12.143M99.492 145.547l7.848-9.86" stroke-width="1.2" stroke="#00f" stroke-miterlimit="10" fill="none"/><path d="M107.34 135.688l7.85-9.86" stroke-width="1.2" stroke="#000" stroke-miterlimit="10" fill="none"/><path d="M96.492 140.047h7v11h-7zm0 0" fill="#fff"/><use xlink:href="#b" x="96.492" y="148.71" fill="#00f"/><path d="M115.19 125.828l24.927 3.73M140.117 129.56l9.23 23.452M146.56 129.734l7.38 18.762M155.813 109.84l-15.696 19.72M149.348 153.012l24.925 3.734M174.273 156.746l15.696-19.723M171.203 151.078l12.56-15.773M189.97 137.023l-9.232-23.453M189.97 137.023l12.464 1.868" stroke-width="1.2" stroke="#000" stroke-miterlimit="10" fill="none"/><path d="M202.434 138.89l12.464 1.868" stroke-width="1.2" stroke="#00f" stroke-miterlimit="10" fill="none"/><path d="M180.738 113.57l-24.925-3.73M177.367 119.063l-19.94-2.985" stroke-width="1.2" stroke="#000" stroke-miterlimit="10" fill="none"/><path d="M214.898 140.758l4.614 11.726" stroke-width="1.2" stroke="#00f" stroke-miterlimit="10" fill="none"/><path d="M219.512 152.484l4.617 11.727M230.594 121.035l-7.848 9.86" stroke-width="1.2" stroke="#000" stroke-miterlimit="10" fill="none"/><path d="M222.746 130.895l-7.848 9.863" stroke-width="1.2" stroke="#00f" stroke-miterlimit="10" fill="none"/><path d="M211.898 135.258h7v11h-7zm0 0" fill="#fff"/><use xlink:href="#b" x="211.898" y="143.921" fill="#00f"/><path d="M224.13 164.21l24.925 3.73M249.055 167.94l7.847-9.858" stroke-width="1.2" stroke="#000" stroke-miterlimit="10" fill="none"/><path d="M256.902 158.082l7.848-9.863M264.75 148.22l-4.617-11.728" stroke-width="1.2" stroke="#f00" stroke-miterlimit="10" fill="none"/><path d="M260.133 136.492l-4.613-11.726" stroke-width="1.2" stroke="#000" stroke-miterlimit="10" fill="none"/><path d="M260.75 142.72h8v11h-8zm0 0" fill="#fff"/><use xlink:href="#a" x="260.75" y="151.382" fill="#f00"/><path d="M255.52 124.766l-24.926-3.73" stroke-width="1.2" stroke="#000" stroke-miterlimit="10" fill="none"/><path d="M145.863 212h15v11h-15zm0 0" fill="#fff"/><g fill="#f00"><use xlink:href="#a" x="145.863" y="220.663"/><use xlink:href="#c" x="153.205" y="220.663"/></g></g></svg>
